X: 1
T:Paddy O'Snap
R:slip jig
Z:id:hn-slipjig-56
M:9/8
K:D
f2d dcd fed|g2e efd cBA|f2d dcd fed|1 efg ABc d2e:|2 efg ABc dfg||
|:a2A ABG FAd|B2e efd efg|a2A ABG FAd|1 efg ABc dfg:|2 efg ABc d2e||
